!!!OTL: MAEDCHEN GEH DU NUR HEIM
!!!ARE: Europa, Mitteleuropa, Deutschland, Hessen, Wetterau
!!!SCT: E0633
!!!YEM: Copyright 1995, estate of Helmut Schaffrath.
**kern
*ICvox
*Ivox
*M3/4
*k[b-e-a-]
*E-:
=1
{4E-
4G
4B-
=2
4e-
8d
8c
4B-}
=3
{4c
4A-
8e-
8c
=4
4.B-
8A-
4G}
=5
{8B-
8B-
8A-
8A-
8F
8F
=6
8c
8c
8B-
8B-
8G
8G}
=7
{8B-
8B-
8A-
8A-
8F
8F
=8
8c
8c
8B-
8B-
8G
8G}
=9
{4E-
4G
4B-
=10
2.g}
=11
{4f
4a-
4d
=12
2e-
4r}
==
!!!AGN: Liebes - Lied
!!!ONB: ESAC (Essen Associative Code) Database: ERK2
!!!AMT: simple triple
!!!AIN: vox
!!!EED: Helmut Schaffrath
!!!EEV: 1.0
*-
